src/ui/compare.svg

<?xml version="1.0" encoding="UTF-8"?><svg xmlns="http://www.w3.org/2000/svg" viewBox="0 0 32 32"><defs><style>.uuid-8fee50ff-878e-4e38-b2ff-5460d21d2277{fill:none;}.uuid-8fee50ff-878e-4e38-b2ff-5460d21d2277,.uuid-3251d782-8238-46cc-8edf-60535ee3597a{stroke-width:0px;}.uuid-3251d782-8238-46cc-8edf-60535ee3597a{fill:#151515;}</style></defs><g id="uuid-c686eaee-66fb-44df-a1eb-a66bd19167bb"><rect class="uuid-8fee50ff-878e-4e38-b2ff-5460d21d2277" x="0" width="32" height="32"/></g><g id="uuid-adf08643-a035-4b1d-ac74-f931b4e2e9fd"><path class="uuid-3251d782-8238-46cc-8edf-60535ee3597a" d="M32,11.5c0-6.3413-5.1587-11.5-11.5-11.5-5.5634,0-10.2145,3.9713-11.2724,9.2276C3.9713,10.2855,0,14.9366,0,20.5c0,6.3413,5.1587,11.5,11.5,11.5,5.5634,0,10.2145-3.9713,11.2724-9.2276,5.2563-1.0579,9.2276-5.709,9.2276-11.2724ZM11.5,30c-5.2383,0-9.5-4.2617-9.5-9.5,0-4.3748,2.9766-8.0583,7.008-9.1572-.0007.0529-.008.1042-.008.1572,0,6.3413,5.1587,11.5,11.5,11.5.053,0,.1043-.0073.1572-.008-1.0989,4.0314-4.7824,7.008-9.1572,7.008ZM20.9759,20.9759c-.1587.0079-.3152.0241-.4759.0241-5.2383,0-9.5-4.2617-9.5-9.5,0-.1606.0162-.3172.0241-.4759.1587-.0079.3152-.0241.4759-.0241,5.2383,0,9.5,4.2617,9.5,9.5,0,.1606-.0162.3172-.0241.4759ZM22.992,20.6572c.0007-.0529.008-.1042.008-.1572,0-6.3413-5.1587-11.5-11.5-11.5-.053,0-.1043.0073-.1572.008,1.0989-4.0314,4.7824-7.008,9.1572-7.008,5.2383,0,9.5,4.2617,9.5,9.5,0,4.3748-2.9766,8.0583-7.008,9.1572Z"/></g></svg>

<svg xmlns="http://www.w3.org/2000/svg" viewBox="0 0 32 32">
  <path d="M0 0h32v32H0z" fill="none"/>
  <path d="M32 11.5C32 5.159 26.841 0 20.5 0 14.937 0 10.286 3.971 9.228 9.228 3.97 10.286 0 14.937 0 20.5 0 26.841 5.159 32 11.5 32c5.563 0 10.214-3.971 11.272-9.228C28.03 21.714 32 17.063 32 11.5ZM11.5 30C6.262 30 2 25.738 2 20.5c0-4.375 2.977-8.058 7.008-9.157 0 .053-.008.104-.008.157C9 17.841 14.159 23 20.5 23c.053 0 .104-.007.157-.008C19.558 27.023 15.875 30 11.5 30Zm9.476-9.024c-.159.008-.315.024-.476.024-5.238 0-9.5-4.262-9.5-9.5 0-.16.016-.317.024-.476.159-.008.315-.024.476-.024 5.238 0 9.5 4.262 9.5 9.5 0 .16-.016.317-.024.476Zm2.016-.319c0-.053.008-.104.008-.157C23 14.159 17.841 9 11.5 9c-.053 0-.104.007-.157.008C12.442 4.977 16.125 2 20.5 2c5.238 0 9.5 4.262 9.5 9.5 0 4.375-2.977 8.058-7.008 9.157Z" fill="#151515"/>
</svg>
